sevzap/images/icons/other/svg/tel-black-1.svg

<svg viewBox="0 0 18 27" fill="none" xmlns="http://www.w3.org/2000/svg">
<path d="M15.6824 0.00012207H1.70933C0.766753 0.00012207 0 0.766932 0 1.70951V25.2908C0 26.2333 0.76681 27.0002 1.70939 27.0002H15.6824C16.625 27.0002 17.3918 26.2334 17.3918 25.2908V1.70951C17.3917 0.766932 16.625 0.00012207 15.6824 0.00012207ZM0.85658 4.2965H16.5352V22.1526H0.85658V4.2965ZM1.70933 0.856701H15.6824C16.1526 0.856701 16.5352 1.23925 16.5352 1.70951V3.72544H0.85658V1.70951C0.85658 1.23925 1.23913 0.856701 1.70933 0.856701ZM15.6824 26.1435H1.70933C1.23913 26.1435 0.856523 25.761 0.856523 25.2907V22.7236H16.5351V25.2907C16.5351 25.761 16.1526 26.1435 15.6824 26.1435Z" fill="#333333"/>
<path d="M8.6959 23.1022C7.92241 23.1022 7.29317 23.7315 7.29317 24.505C7.29317 25.2785 7.92247 25.9077 8.6959 25.9077C9.46934 25.9077 10.0986 25.2784 10.0986 24.505C10.0986 23.7315 9.46939 23.1022 8.6959 23.1022ZM8.6959 25.3366C8.23729 25.3366 7.86422 24.9635 7.86422 24.505C7.86422 24.0464 8.23729 23.6732 8.6959 23.6732C9.15451 23.6732 9.52758 24.0464 9.52758 24.505C9.52758 24.9635 9.15451 25.3366 8.6959 25.3366Z" fill="#333333"/>
<path d="M6.75428 2.72071H10.6374C10.7952 2.72071 10.923 2.59285 10.923 2.43518C10.923 2.27752 10.7952 2.14966 10.6374 2.14966H6.75428C6.59655 2.14966 6.46875 2.27752 6.46875 2.43518C6.46875 2.59285 6.59655 2.72071 6.75428 2.72071Z" fill="#333333"/>
<path d="M5.72772 2.72071C5.80253 2.72071 5.87619 2.69045 5.9293 2.63734C5.98241 2.58366 6.01325 2.51056 6.01325 2.43518C6.01325 2.35981 5.98241 2.28671 5.9293 2.23303C5.87614 2.17992 5.80247 2.14966 5.72772 2.14966C5.65234 2.14966 5.57919 2.17992 5.52557 2.23303C5.47246 2.28614 5.44219 2.35981 5.44219 2.43518C5.44219 2.51056 5.47246 2.58366 5.52557 2.63734C5.57867 2.69045 5.65234 2.72071 5.72772 2.72071Z" fill="#333333"/>
</svg>

<svg viewBox="0 0 18 27" fill="none" xmlns="http://www.w3.org/2000/svg"><path d="M15.682 0H1.71C.767 0 0 .767 0 1.71v23.58C0 26.234.767 27 1.71 27h13.972c.943 0 1.71-.767 1.71-1.71V1.71c0-.943-.767-1.71-1.71-1.71zM.857 4.296h15.678v17.857H.857V4.297zm.852-3.44h13.973c.47 0 .853.383.853.854v2.015H.857V1.71c0-.47.382-.853.852-.853zm13.973 25.287H1.71a.854.854 0 0 1-.852-.852v-2.567h15.678v2.567c0 .47-.382.852-.853.852z" fill="#333"/><path d="M8.696 23.102c-.774 0-1.403.63-1.403 1.403 0 .774.63 1.403 1.403 1.403s1.403-.63 1.403-1.403-.63-1.403-1.403-1.403zm0 2.235a.833.833 0 0 1 0-1.664.833.833 0 0 1 0 1.664zM6.754 2.72h3.883a.286.286 0 1 0 0-.571H6.754a.286.286 0 1 0 0 .57zm-1.026 0a.287.287 0 0 0 .285-.286.287.287 0 0 0-.488-.202.288.288 0 0 0 0 .404.288.288 0 0 0 .203.084z" fill="#333"/></svg>
